packages/sources/icons/src/vitamix/firefox-line.svg

<svg width="16" height="16" viewBox="0 0 16 16" xmlns="http://www.w3.org/2000/svg"><path d="M7.99998 1.33334C11.682 1.33334 14.6666 4.31801 14.6666 8.00001C14.6666 11.682 11.682 14.6667 7.99998 14.6667C4.31798 14.6667 1.33331 11.682 1.33331 8.00001C1.33331 7.02401 1.54265 6.09734 1.91998 5.26268C2.23065 4.63668 2.74198 4.01334 3.15331 3.80001C2.71798 4.65534 2.50465 5.49334 2.45998 6.05534C2.76265 5.05534 3.33665 4.21734 4.13998 3.62601C5.51731 2.61334 7.37198 2.56801 8.11065 3.21268C6.73998 3.68401 5.24665 5.57801 5.57531 7.79668C5.62865 8.16334 5.73865 8.51934 5.90131 8.85134C5.64531 8.17801 5.62265 7.22934 6.03598 6.61268C6.49731 5.92601 7.15465 5.78068 7.50665 5.85534C7.36798 5.82601 7.06131 6.41268 7.01598 6.51601C6.90065 6.77868 6.84331 7.06268 6.84865 7.34934C6.85856 7.94826 7.10548 8.51882 7.53531 8.93601C8.81665 10.1833 10.884 9.69268 11.81 8.26801C12.4453 7.28734 12.5226 5.62268 11.7066 4.30001C11.503 3.97794 11.2603 3.68235 10.984 3.42001C9.75065 2.24268 7.99731 1.70668 6.32931 1.95001C5.59198 2.06801 4.96465 2.28068 4.44665 2.58734C5.16998 1.86534 6.60665 1.33334 7.99998 1.33334ZM4.58331 5.13668C3.08131 5.65734 2.24931 7.25001 2.86398 9.44334C3.17147 10.5355 3.81911 11.5013 4.71285 12.2003C5.60658 12.8994 6.69988 13.2953 7.83398 13.3307L7.99998 13.3333C9.35727 13.3334 10.6635 12.816 11.6526 11.8865C12.6417 10.957 13.2392 9.68536 13.3233 8.33068L13.3293 8.18934C13.2426 8.42201 13.1406 8.63868 13.0206 8.84268L12.9273 8.99401C11.5246 11.1533 8.47331 11.7107 6.60731 9.89268C6.35348 9.64641 6.13737 9.36404 5.96598 9.05468L5.89531 8.92068C4.73798 8.66268 4.17265 8.03668 4.19998 7.04268C4.21798 6.38201 4.35331 5.73601 4.58331 5.13601V5.13668Z"/></svg>

<svg width="16" height="16" xmlns="http://www.w3.org/2000/svg"><path d="M8 1.333a6.666 6.666 0 1 1-6.08 3.93c.31-.626.822-1.25 1.233-1.463-.435.855-.648 1.693-.693 2.255.303-1 .877-1.838 1.68-2.429 1.377-1.013 3.232-1.058 3.97-.413-1.37.471-2.863 2.365-2.535 4.584.054.366.164.722.326 1.054-.256-.673-.278-1.622.135-2.238.461-.687 1.119-.832 1.47-.758-.138-.029-.445.558-.49.661a1.98 1.98 0 0 0-.167.833c.01.6.256 1.17.686 1.587 1.282 1.247 3.349.757 4.275-.668.635-.98.713-2.645-.103-3.968a4.61 4.61 0 0 0-.723-.88C9.751 2.243 7.997 1.707 6.329 1.95c-.737.118-1.364.33-1.882.637C5.17 1.865 6.607 1.333 8 1.333ZM4.583 5.137c-1.502.52-2.334 2.113-1.719 4.306a5.336 5.336 0 0 0 4.97 3.888l.166.002a5.333 5.333 0 0 0 5.323-5.002l.006-.142c-.086.233-.188.45-.308.654l-.094.151c-1.402 2.16-4.454 2.717-6.32.899a3.595 3.595 0 0 1-.641-.838l-.07-.134C4.737 8.663 4.172 8.037 4.2 7.043a5.777 5.777 0 0 1 .383-1.907Z"/></svg>
